common/src/main/resources/files/plugins/bigdata/parquet.svg

<!--
  - The MIT License (MIT)
  -
  - Copyright (c) 2015-2024 Elior "Mallowigi" Boukhobza
  -
  - Permission is hereby granted, free of charge, to any person obtaining a copy
  - of this software and associated documentation files (the "Software"), to deal
  - in the Software without restriction, including without limitation the rights
  - to use, copy, modify, merge, publish, distribute, sublicense, and/or sell
  - copies of the Software, and to permit persons to whom the Software is
  - furnished to do so, subject to the following conditions:
  -
  - The above copyright notice and this permission notice shall be included in all
  - copies or substantial portions of the Software.
  -
  - THE SOFTWARE IS PROVIDED "AS IS", WITHOUT WARRANTY OF ANY KIND, EXPRESS OR
  - IMPLIED, INCLUDING BUT NOT LIMITED TO THE WARRANTIES OF MERCHANTABILITY,
  - FITNESS FOR A PARTICULAR PURPOSE AND NONINFRINGEMENT. IN NO EVENT SHALL THE
  - AUTHORS OR COPYRIGHT HOLDERS BE LIABLE FOR ANY CLAIM, DAMAGES OR OTHER
  - LIABILITY, WHETHER IN AN ACTION OF CONTRACT, TORT OR OTHERWISE, ARISING FROM,
  - OUT OF OR IN CONNECTION WITH THE SOFTWARE OR THE USE OR OTHER DEALINGS IN THE
  - SOFTWARE.
  -->

<svg data-big="true" xmlns="http://www.w3.org/2000/svg" width="16px" height="16px" viewBox="0 0 16 16">
  <path fill="#50ABF1" fill-rule="evenodd"
        d="M7.30211496,13.8681262 C6.66905624,13.1927389 6.65014355,13.1634892 6.7639385,13.0357805 C6.94431475,12.833347 14.6381426,5.79057236 14.7485963,5.72678528 C14.8441574,5.67159875 15.7874752,6.12705651 15.9935727,6.32788903 C16.0725833,6.40488377 15.4595561,7.06010769 12.1151173,10.4733143 C9.93035223,12.7030019 8.10128322,14.5364748 8.05052614,14.5477015 C7.99976574,14.5589329 7.6629837,14.2531168 7.30211496,13.8681262 L7.30211496,13.8681262 Z M5.55565836,12.0738722 C5.21436318,11.7307913 4.99848619,11.4612757 5.02002242,11.405144 C5.05893042,11.303757 9.48202915,7.7285157 9.5647246,7.73160545 C9.66666981,7.73543386 10.7076329,8.52629781 10.7076329,8.5999331 C10.7076329,8.67742564 6.26116979,12.6485745 6.17439724,12.6485745 C6.1485272,12.6485745 5.87010384,12.3899578 5.55565836,12.0738722 Z M3.93951502,10.4254736 C3.67233965,10.1269487 3.504563,9.88592098 3.54055523,9.85232314 C3.72695233,9.67831543 5.65015872,8.34473499 5.71360839,8.34549053 C5.81698558,8.34678666 6.74524499,9.14258683 6.74524499,9.22998438 C6.74524499,9.33745495 4.66249121,10.9406417 4.52287272,10.9406417 C4.45561727,10.9406417 4.1931078,10.7088163 3.93951502,10.4254736 Z M2.61427177,9.06513513 C2.23149486,8.67807123 2.18582213,8.60587424 2.27268767,8.52516404 C2.39720922,8.40945956 8.51083312,4.46271786 8.63576348,4.41738087 C8.73357712,4.38188545 9.58040304,4.89463223 9.58040304,4.98935276 C9.58040304,5.05706052 3.31304835,9.44604103 3.16048488,9.48517485 C3.09990449,9.50072012 2.87076704,9.32450599 2.61427177,9.06513513 L2.61427177,9.06513513 Z M6.69178136,8.4418954 C6.4393808,8.23239195 6.23423705,8.02487673 6.23587425,7.98075453 C6.23756462,7.936635 6.46045873,7.74485235 6.73120078,7.55457508 C7.00194615,7.36429781 8.21583235,6.49581877 9.42872492,5.62461823 C10.6416175,4.75341969 11.6839156,4.04062049 11.74494,4.04062049 C11.9081753,4.04062049 12.734523,4.51839157 12.7081472,4.59752068 C12.669832,4.71246101 7.36664725,8.82100634 7.25539945,8.82193988 C7.19781454,8.82246755 6.94418524,8.65140118 6.69178136,8.4418954 Z M1.38316357,7.82668037 C1.08192211,7.50816244 1.03811906,7.43122216 1.1170675,7.35926261 C1.18534248,7.29702973 4.97232724,5.060324 5.43039625,4.81168207 C5.50603704,4.77062343 6.30889486,5.34967255 6.28320083,5.42675463 C6.24998822,5.5263991 1.9790943,8.20774368 1.85341043,8.20785995 C1.79310236,8.20791404 1.58149609,8.03638508 1.38316357,7.82668037 Z M10.5396829,7.85216518 C10.2625009,7.65331825 10.0250236,7.45845776 10.0119558,7.41914328 C9.99331206,7.36305578 12.5055433,5.27514393 13.0754094,4.87310763 C13.1861953,4.79494923 13.2733554,4.82098133 13.748478,5.07413807 C14.0486684,5.23408662 14.2938423,5.39745873 14.2933122,5.43719165 C14.291948,5.53883964 11.3018481,8.16943112 11.1600258,8.19375128 C11.0960189,8.20472695 10.8168646,8.0510151 10.5396829,7.85216518 Z M0.364339111,6.74595844 L0,6.37703612 L0.161722596,6.27223524 C0.250670356,6.21459354 2.05611993,5.22976145 4.17383645,4.08371652 L8.0242277,2 L8.39241178,2.18057485 C8.59491539,2.27989121 8.76059852,2.39478007 8.76059852,2.43588354 C8.76059852,2.49213443 0.844133637,7.11488077 0.747803452,7.11488077 C0.737309317,7.11488077 0.564723962,6.94886454 0.364339111,6.74595844 L0.364339111,6.74595844 Z M6.28410412,4.88595564 C6.10562744,4.75198638 5.95978885,4.606892 5.96001389,4.56352433 C5.96022057,4.52015632 6.68190823,4.05974074 7.56372113,3.54037867 L9.1670148,2.59608383 L9.57866021,2.81548863 C9.80506554,2.93616156 9.99030529,3.05819872 9.99030529,3.08668233 C9.99030529,3.16767082 6.84645694,5.1339387 6.72068672,5.13161592 C6.65904696,5.13058024 6.46258413,5.01992523 6.28410412,4.88595564 L6.28410412,4.88595564 Z M9.49500635,4.4773512 C9.27895501,4.34382562 9.10278604,4.19862132 9.10351511,4.15467447 C9.10481712,4.08021891 10.1967359,3.3487086 10.3758768,3.30232087 C10.4582524,3.28099055 11.1931587,3.66862398 11.2525565,3.76473432 C11.2704497,3.79370278 11.2320298,3.8646541 11.1671625,3.92240837 C10.9452962,4.11994121 10.0344042,4.72378605 9.96106086,4.72196631 C9.92078331,4.72095761 9.71106034,4.61087679 9.49500635,4.4773512 L9.49500635,4.4773512 Z"/>
</svg>

<svg xmlns="http://www.w3.org/2000/svg" width="16" height="16" data-big="true"><path fill="#50ABF1" fill-rule="evenodd" d="M7.302 13.868c-.633-.675-.652-.705-.538-.832.18-.203 7.874-7.245 7.985-7.31.095-.054 1.038.401 1.245.602.079.077-.534.732-3.879 4.145-2.185 2.23-4.014 4.063-4.064 4.075-.051.01-.388-.295-.749-.68m-1.746-1.794c-.342-.343-.558-.613-.536-.669.039-.101 4.462-3.676 4.545-3.673.102.003 1.143.794 1.143.868 0 .077-4.447 4.049-4.534 4.049-.025 0-.304-.259-.618-.575M3.94 10.425c-.268-.298-.435-.54-.4-.573.187-.174 2.11-1.507 2.174-1.507.103.002 1.031.798 1.031.885 0 .107-2.083 1.71-2.222 1.71-.067 0-.33-.231-.583-.515m-1.326-1.36c-.383-.387-.428-.46-.341-.54.124-.116 6.238-4.062 6.363-4.108.098-.035.944.478.944.572 0 .068-6.267 4.457-6.42 4.496-.06.016-.29-.16-.546-.42m4.078-.623c-.253-.21-.458-.417-.456-.461s.224-.236.495-.426c.27-.19 1.485-1.06 2.698-1.93 1.213-.872 2.255-1.584 2.316-1.584.163 0 .99.477.963.557-.038.114-5.341 4.223-5.453 4.224-.057 0-.31-.17-.563-.38m-5.309-.615c-.301-.319-.345-.396-.266-.468.068-.062 3.855-2.299 4.313-2.547.076-.041.879.538.853.615-.033.1-4.304 2.78-4.43 2.78-.06 0-.272-.17-.47-.38m9.157.025c-.277-.199-.515-.394-.528-.433-.019-.056 2.494-2.144 3.063-2.546.111-.078.198-.052.673.201.3.16.546.323.545.363-.001.102-2.991 2.732-3.133 2.757-.064.01-.343-.143-.62-.342M.364 6.746 0 6.377l.162-.105C.25 6.215 2.056 5.23 4.174 4.084L8.024 2l.368.18c.203.1.369.215.369.256 0 .056-7.917 4.679-8.013 4.679a6 6 0 0 1-.384-.369m5.92-1.86c-.178-.134-.324-.28-.324-.322 0-.044.722-.504 1.604-1.024l1.603-.944.412.22c.226.12.411.242.411.27 0 .082-3.144 2.048-3.27 2.046-.061-.001-.257-.112-.436-.246m3.211-.409c-.216-.133-.392-.278-.391-.322 0-.075 1.093-.806 1.272-.853.082-.021.817.367.877.463.017.029-.021.1-.086.157-.222.198-1.133.802-1.206.8-.04-.001-.25-.111-.466-.245"/></svg>
